icons/lines/messages-three.svg

<svg xmlns="http://www.w3.org/2000/svg" width="24" height="24" viewBox="0 0 24 24" fill="none" stroke="currentColor" stroke-width="2" stroke-linecap="round" stroke-linejoin="round">
  <path d="M15.59 12.4c0-2.04-1.36-3.4-3.4-3.4H5.4a5 5 0 0 0-.4.02V6.25C5 3.7 6.7 2 9.25 2h8.5C20.3 2 22 3.7 22 6.25v5.1c0 1.27-.42 2.34-1.17 3.08-.74.75-1.81 1.17-3.08 1.17v1.81a.85.85 0 0 1-1.32.71l-.97-.64a3.6 3.6 0 0 0 .13-1.01" />
  <path d="M5.4 9a5 5 0 0 0-.4.02c-1.82.17-3 1.48-3 3.38v4.07c0 1.02.34 1.87.94 2.47.59.59 1.44.93 2.46.93v1.45a.671.671 0 0 0 1.05.56l3.02-2.01h2.72c1.68 0 2.9-.92 3.27-2.39a3.6 3.6 0 0 0 .13-1.01V12.4c0-2.04-1.36-3.4-3.4-3.4" />
</svg>

<svg xmlns="http://www.w3.org/2000/svg" width="24" height="24" viewBox="0 0 24 24" fill="none" stroke="currentColor" stroke-width="2" stroke-linecap="round" stroke-linejoin="round" >
  <path d="M22 6.25V11.35C22 12.62 21.58 13.69 20.83 14.43C20.09 15.18 19.02 15.6 17.75 15.6V17.41C17.75 18.09 16.99 18.5 16.43 18.12L15.46 17.48C15.55 17.17 15.59 16.83 15.59 16.47V12.4C15.59 10.36 14.23 9 12.19 9H5.39999C5.25999 9 5.13 9.01002 5 9.02002V6.25C5 3.7 6.7 2 9.25 2H17.75C20.3 2 22 3.7 22 6.25Z" stroke-miterlimit="10"/>
  <path d="M15.59 12.4V16.47C15.59 16.83 15.55 17.17 15.46 17.48C15.09 18.95 13.87 19.87 12.19 19.87H9.47L6.45 21.88C6 22.19 5.39999 21.86 5.39999 21.32V19.87C4.37999 19.87 3.53 19.53 2.94 18.94C2.34 18.34 2 17.49 2 16.47V12.4C2 10.5 3.18 9.19002 5 9.02002C5.13 9.01002 5.25999 9 5.39999 9H12.19C14.23 9 15.59 10.36 15.59 12.4Z" stroke-miterlimit="10"/>
  </svg>
